assets/images/bank-icons/monument.svg

<?xml version="1.0" encoding="UTF-8" standalone="no"?>
<svg
   version="1.1"
   id="Layer_1"
   x="0px"
   y="0px"
   viewBox="0 0 373.79998 364.60001"
   xml:space="preserve"
   width="373.79999"
   height="364.60001"
   xmlns="http://www.w3.org/2000/svg"
   xmlns:svg="http://www.w3.org/2000/svg"
   style="background-color:#004048"><defs
   id="defs13" />&#10;<style
   type="text/css"
   id="style1">&#10;	.st0{fill:#F9383D;}&#10;	.st1{fill:#FFFFFF;}&#10;	.st2{fill-rule:evenodd;clip-rule:evenodd;fill:#FFFFFF;}&#10;</style>&#10;&#10;&#10;&#10;&#10;&#10;&#10;&#10;&#10;&#10;&#10;&#10;&#10;&#10;<path
   d="M 253.13718,74.995 219.59675,87.209416 186.89999,74.995 153.35019,87.209416 120.6628,74.995 85.172563,88.428046 V 248.16224 l 35.490237,13.40492 30.74695,-11.47386 v 26.26615 l 35.49024,13.24556 35.49024,-13.24556 v -26.31302 l 30.74695,11.46449 35.49024,-13.33931 V 88.43742 Z M 118.29116,99.986277 V 255.59588 L 89.906474,245.02192 V 91.680849 l 30.700076,-11.661346 25.93806,9.692791 z m 66.24656,0 V 283.78371 L 156.13428,273.20976 V 91.212145 l 30.71884,-11.192642 25.92868,9.683417 z m 66.2372,0 V 255.59588 L 222.39023,245.02192 V 91.212145 l 30.70008,-11.192642 25.88182,9.683417 z"
   fill="#ffffff"
   style="stroke-width:9.37407"
   id="path1-6" /></svg>

<svg xmlns="http://www.w3.org/2000/svg" width="373.8" height="364.6" style="background-color:#004048"><path d="M253.137 74.995l-33.54 12.214L186.9 74.995l-33.55 12.214-32.687-12.214-35.49 13.433v159.734l35.49 13.405 30.747-11.474v26.266l35.49 13.246 35.49-13.246v-26.313l30.747 11.464 35.49-13.339V88.437zM118.291 99.986v155.61l-28.385-10.574V91.681l30.7-11.661 25.938 9.693zm66.247 0v183.797l-28.403-10.574V91.212l30.719-11.193 25.929 9.683zm66.237 0v155.61l-28.385-10.574V91.212l30.7-11.193 25.882 9.683z" fill="#fff"/></svg>
